!! "Himene" [Tahiti] Instrumental work in 5 parts.
!! from Fritz Bose, 'Musikalische Voelkerkunde';
!! Freiburg: Atlantis-Musikbuecherei, 1953, pp.181-182
!! Irregular meter
**kern	**kern	**kern	**kern	**kern
*M6/4	*M6/4	*M6/4	*M6/4	*M6/4
=1	=1	=1	=1	=1
1.r	1.r	1.r	4d	1.r
.	.	.	8f	.
.	.	.	8f	.
.	.	.	4f	.
.	.	.	8f	.
.	.	.	8f	.
.	.	.	4f	.
.	.	.	8a	.
.	.	.	8a	.
*M4/4	*M4/4	*M4/4	*M4/4	*M4/4
=2	=2	=2	=2	=2
1r	1r	2r	8b-	1r
.	.	.	8b-	.
.	.	.	8b-	.
.	.	.	8b-	.
.	.	4r	8b-	.
.	.	.	8b-	.
.	.	8d	8a	.
.	.	8d	8a	.
*M5/4	*M5/4	*M5/4	*M5/4	*M5/4
=3	=3	=3	=3	=3
1r	4r	8d	8a	1r
.	.	8d	8a	.
.	8F	8d	8g	.
.	8F	8f	8f	.
.	8F	4r	4r	.
.	8F	.	.	.
.	4A	2r	2r	.
4r	4A	.	.	4r
*M4/4	*M4/4	*M4/4	*M4/4	*M4/4
=4	=4	=4	=4	=4
4r	4A	8e-	8f	1r
.	.	8e-	8f	.
8C	4F	8e-	8b-	.
8C	.	8e-	8b-	.
4C	4.B-	8e-	8cc	.
.	.	8e-	8cc	.
4C	.	8f	8cc	.
.	8r	8f	8cc	.
=5	=5	=5	=5	=5
1r	8B-	4f	4b-	1r
.	8B-	.	.	.
.	8A	8f	8a	.
.	8A	8f	8a	.
.	4A	8f	8a	.
.	.	8f	4g	.
.	4F	4d	.	.
.	.	.	8g	.
=6	=6	=6	=6	=6
1r	4G	8d	8d	1r
.	.	8d	8f	.
.	4F	4r	8f	.
.	.	.	8f	.
.	4F	2r	8f	.
.	.	.	8f	.
.	8F	.	8f	.
.	8r	.	8f	.
=7	=7	=7	=7	=7
1r	8A	4r	8f	2r
.	8A	.	8f	.
.	8A	4c	8f	.
.	8A	.	8f	.
.	8A	4r	2f	8b-
.	8A	.	.	8cc
.	8A	4c	.	8cc
.	8A	.	.	8cc
=8	=8	=8	=8	=8
4r	8A	4c	4g	[1cc
.	8A	.	.	.
8C	4A	4c	8a	.
8C	.	.	8a	.
4C	4B-	2f	8a	.
.	.	.	8cc	.
4C	8A	.	8cc	.
.	8A	.	8cc	.
=9	=9	=9	=9	=9
8C	8A	2f	8dd	4cc]
8C	8A	.	8dd	.
8C	4A	.	8cc	[2ee
8C	.	.	8cc	.
4C	4F	4d	4b-	.
4C	8G	4c	8a	4dd]
.	8G	.	8g	.
=10	=10	=10	=10	=10
4C	4G	2c	8g	4cc
.	.	.	8f	.
8C	4F	.	8f	8a
8C	.	.	8f	8g
4C	2r	4d	8f	4f
.	.	.	8f	.
4r	.	4r	8f	4r
.	.	.	8f	.
=11	=11	=11	=11	=11
1r	8F	4c	8f	2r
.	8F	.	8f	.
.	8F	4r	8f	.
.	8F	.	8f	.
.	8A	4r	2f	8b-
.	8A	.	.	8b-
.	8A	4c	.	8b-
.	8A	.	.	8b-
=12	=12	=12	=12	=12
4r	8A	2c	4g	[{1dd
.	8A	.	.	.
8C	2A	.	8b-	.
8C	.	.	8b-	.
4C	.	2e	4b-	.
4C	8A	.	4cc	.
.	8A	.	.	.
=13	=13	=13	=13	=13
8C	4G	4d	8cc	4dd]
8C	.	.	8cc	.
8C	4F	4f	8b-	4ff
8C	.	.	8b-	.
4C	4G	2f	4a	4g
4C	4G	.	4g	4a}
=14	=14	=14	=14	=14
8F	4F	4c	8f	8a
8F	.	.	8f	8g
8C	4r	4c	8f	2f
8C	.	.	8f	.
4D	8E	2r	8d	.
.	8E	.	8f	.
4C	8E	.	8f	4r
.	8E	.	8f	.
=15	=15	=15	=15	=15
1r	4D	1r	8f	1r
.	.	.	8f	.
.	4C	.	8f	.
.	.	.	8f	.
.	2r	.	2f	.
====	====	====	====	====
*-	*-	*-	*-	*-
